svgs/sharp-light/circle-n.svg

<svg xmlns="http://www.w3.org/2000/svg" viewBox="0 0 512 512"><!--! Font Awesome Pro 6.6.0 by @fontawesome - https://fontawesome.com License - https://fontawesome.com/license (Commercial License) Copyright 2024 Fonticons, Inc. --><path d="M256 32a224 224 0 1 1 0 448 224 224 0 1 1 0-448zm0 480A256 256 0 1 0 256 0a256 256 0 1 0 0 512zM160 128l0 16 0 224 0 16 32 0 0-16 0-174.1L323 377.3l4.8 6.7 24.2 0 0-16 0-224 0-16-32 0 0 16 0 174.1L189 134.7l-4.8-6.7L160 128z"/></svg>

<svg xmlns="http://www.w3.org/2000/svg" viewBox="0 0 512 512"><!--! Font Awesome Pro 6.4.2 by @fontawesome - https://fontawesome.com License - https://fontawesome.com/license (Commercial License) Copyright 2023 Fonticons, Inc. --><path d="M256 32a224 224 0 1 1 0 448 224 224 0 1 1 0-448zm0 480A256 256 0 1 0 256 0a256 256 0 1 0 0 512zM160 128v16V368v16h32V368 193.9L323 377.3l4.8 6.7H352V368 144 128H320v16V318.1L189 134.7l-4.8-6.7H160z"/></svg>
